assets/features/channel/southeast-asia/linkaja.svg

<svg width="80" height="80" viewBox="0 0 80 80" fill="none" xmlns="http://www.w3.org/2000/svg">
<rect width="80" height="80" rx="8" fill="#E9232A"/>
<path d="M17.5991 61.5328C16.6864 61.0556 15.9673 60.6376 16.0011 60.6037C16.1177 60.4867 20.4848 59.5514 23.5345 58.9906C30.1336 57.7765 37.9796 56.8049 45.7946 56.2337C49.013 55.9985 60.6566 55.9907 62.676 56.2224L64 56.3743L62.5075 56.3976C59.8582 56.4389 53.7825 56.8655 49.022 57.3446C40.0112 58.2512 29.9939 59.9232 22.747 61.7295C21.2668 62.0984 19.8766 62.4 19.6572 62.4C19.438 62.4 18.5118 62.0098 17.5991 61.5328ZM30.1969 52.4308C30.0615 52.0554 30.628 51.8874 30.875 51.7807C31.9844 51.3033 32.7651 50.5253 33.0263 49.6367C33.1513 49.2115 33.5321 46.8081 33.8724 44.2959C34.2127 41.7837 34.5186 39.8406 34.552 39.7265C34.5767 39.6422 34.6437 39.3424 35.0029 39.3102C35.9194 39.3013 36.6 39.313 37.5393 39.313C38.0582 39.2631 37.9562 39.8328 37.9154 40.1979C37.8747 40.6589 37.7511 41.5491 37.6069 42.6349C37.4313 43.9595 37.1689 45.9392 37.0237 47.0343C36.6973 49.4955 36.5164 50.2533 35.9522 51.521C35.2807 53.0295 34.2543 53.9059 32.3937 54.5295C32.018 54.6477 30.9404 55.0156 30.8232 54.6887C30.58 53.9062 30.4073 53.226 30.1969 52.4308ZM51.5636 51.6055C50.3238 51.1032 50.3822 49.1632 51.6828 48.3674C52.506 47.8636 53.6625 47.9492 54.2568 48.5456C55.721 50.0152 53.5678 52.417 51.5636 51.6055ZM42.1918 50.4466C38.5464 49.8218 38.5708 45.4598 39.3874 42.9671C40.4101 40.082 42.9021 39.2438 44.9503 39.1706C46.6788 39.1111 49.0751 39.4337 49.6766 39.8069C49.8429 39.9099 49.7647 40.9099 49.3007 44.6179C48.9784 47.1924 48.626 49.4062 48.5175 49.5374C47.9404 50.2354 44.0733 50.7911 42.1918 50.4466ZM45.372 46.9946C45.7632 45.5334 45.9284 44.2143 46.2082 42.6729C46.1734 42.1417 45.28 42.138 45.0526 42.1367C43.8691 42.1367 43.1701 42.8035 42.7994 44.2858C42.2914 46.319 42.822 47.4516 44.2827 47.4516C44.7444 47.4087 45.2263 47.4344 45.372 46.9946ZM18.7293 49.2695C19.7258 46.8266 23.7281 38.079 24.6887 36.2675C24.8702 35.8158 25.3484 35.7268 25.6757 35.6951C26.6171 35.652 27.4308 35.6635 28.2575 35.6694C29.1093 35.6771 29.1218 35.977 29.2314 36.6123C29.3654 37.2454 31.0272 47.2029 31.4034 49.5931C31.4513 49.9899 31.5482 50.1135 31.0334 50.1143C30.32 50.1164 28.6031 50.2095 28.0204 50.1653C27.8342 50.141 27.7129 50.0185 27.684 49.8806C27.6308 49.6242 27.5707 49.1842 27.5298 48.7253L27.4236 47.5347H25.2853H23.1467L22.6792 48.6797C22.5128 49.0867 22.3311 49.4885 22.1957 49.7551C22.1008 49.9996 21.9595 50.1123 21.7478 50.1585C21.2244 50.154 19.3691 50.2231 18.6716 50.1614C18.3266 50.0023 18.6386 49.492 18.7293 49.2695ZM27.0467 44.2192C26.9861 43.5759 26.5769 40.2582 26.4809 39.7678C26.4557 39.7152 26.4438 39.7325 26.4178 39.7635C26.1652 40.1441 24.7981 43.5116 24.5654 44.2936C24.5373 44.4014 24.6072 44.4411 24.7088 44.4322C25.0556 44.4084 26.4729 44.3818 26.9039 44.3652C27.0268 44.3557 27.0389 44.3126 27.0467 44.2192ZM51.7281 45.8323C51.7834 45.3983 51.9045 44.2213 51.9973 43.2163C52.0901 42.2114 52.2386 40.6418 52.3274 39.7284C52.3948 39.0351 52.4542 38.3622 52.4798 38.0081C52.5316 37.6907 52.9141 37.6533 53.1653 37.6508C54.003 37.6596 54.7917 37.6099 55.5452 37.6796C55.9012 37.7162 56.05 37.7951 56.0514 38.0077C55.7117 39.7565 54.4909 45.7906 54.3971 46.1644C54.316 46.4865 54.2832 46.5815 53.7932 46.6095C53.1927 46.5998 52.692 46.6313 52.083 46.6282C51.7337 46.6237 51.6402 46.5209 51.7281 45.8323ZM34.8248 36.8677C34.8248 35.8016 35.5083 34.9891 36.3642 34.6472C37.1038 34.3871 37.9327 34.3882 38.3739 34.8941C39.1571 35.8078 38.6431 37.1578 37.7284 37.8611C36.5562 38.6703 34.8439 38.1921 34.8248 36.8677ZM55.8248 34.6209C55.5689 34.05 54.7476 32.2487 53.9999 30.6181C53.2521 28.9875 52.6797 27.5502 52.7281 27.4238C52.7764 27.2975 53.6098 26.2584 54.5803 25.1151L56.1596 23.2536C56.2628 23.1284 56.3814 22.9748 56.5246 22.973C57.4767 22.9777 58.4629 23.0349 59.3713 23.0258C60.0477 23.0201 60.3882 22.9761 59.8863 23.4872C59.5651 23.8864 58.9316 24.6173 58.2074 25.4194C57.1605 26.5783 56.3042 27.5576 56.3042 27.5956C56.3042 27.6335 57.0891 29.3642 58.0484 31.4417C58.8023 33.074 59.4249 34.5339 59.6347 35.1437C59.7244 35.3508 59.6458 35.528 59.454 35.5763C59.2002 35.6355 58.7431 35.659 57.9573 35.659H56.7801C56.4927 35.6892 56.2811 35.6386 56.1704 35.3917L55.8248 34.6209ZM20.5953 33.4056C19.5359 32.8758 19.0352 32.2053 18.9438 31.1948C18.8891 30.5891 19.8766 22.4473 20.3138 19.8584C20.4205 19.2504 20.4668 19.2157 21.0476 19.2157H22.1903C22.7906 19.2157 23.337 19.2056 23.6807 19.2251C24.1503 19.2321 24.0645 19.529 24.0286 19.8847C23.9479 20.6785 23.6963 22.3983 23.3806 24.6128C22.8203 28.5418 22.6777 29.9281 22.8117 30.142C22.9686 30.3916 23.3669 30.4327 26.0062 30.4724L28.3671 30.5079C28.9292 30.4765 29.0456 30.615 28.9901 31.1216C28.8524 31.9605 28.777 32.6287 28.6399 33.3801C28.5459 33.8491 28.2443 33.7263 27.7746 33.7551L25.0146 33.7936C21.4756 33.8382 21.4567 33.8363 20.5953 33.4056ZM47.8181 33.7074C47.7822 33.639 47.8809 32.686 48.0375 31.5898C48.1938 30.4935 48.5205 28.139 48.7633 26.3577C49.4529 21.3006 49.6793 19.777 49.7753 19.1941C49.8767 18.5138 49.8774 18.5514 50.5415 18.5514H51.5948C52.0057 18.5514 52.3265 18.5461 52.5742 18.5541C53.5201 18.5849 53.3996 18.5031 53.161 19.9731C53.0708 20.5286 52.7705 22.9736 52.4935 25.029C51.7961 30.2051 51.3387 33.3789 51.2549 33.6244C51.1762 33.8544 47.9356 33.9328 47.8181 33.7074ZM29.8237 33.3135C30.2629 29.6146 30.6825 26.8177 31.1704 23.3755C31.2069 22.9635 31.6105 22.9158 32.0821 22.9152C32.6184 22.9148 33.1636 22.9076 33.6743 22.9247C34.6636 22.928 34.9238 23.061 34.8212 23.7253C34.3829 26.9566 33.8413 29.8406 33.2724 33.126C33.166 33.6823 33.0364 33.6659 32.5066 33.6659C31.8899 33.668 30.7955 33.6887 30.2365 33.6731C29.9093 33.6151 29.8349 33.5779 29.8237 33.3135ZM36.8063 25.0329C37.0777 23.6025 37.2658 23.3792 37.66 23.12C38.1465 22.8003 41.7403 22.467 42.981 22.6265C43.1543 22.6514 43.3192 22.6827 43.4761 22.7203C47.1113 23.5867 46.5462 27.7173 46.3098 29.6177C46.0607 31.4331 45.8163 33.0867 45.7665 33.2921C45.6799 33.6499 45.6024 33.6659 43.9561 33.6659C43.4032 33.6659 43.1141 33.6468 42.7994 33.6172C42.291 33.5839 42.2439 33.4691 42.2947 33.098C42.4799 31.5813 42.7298 30.2733 42.916 28.8566C43.1668 26.9231 43.1 25.0144 40.7096 25.4247C40.2999 25.529 40.1878 25.5621 40.1313 25.972C39.833 27.8818 39.571 29.8547 39.2981 31.7228C39.2381 32.1685 39.1545 32.6344 39.0686 33.0475C39.0463 33.1525 39.0342 33.2467 39.0152 33.3164C38.9908 33.3988 38.9342 33.4844 38.8802 33.3996C38.496 32.6975 36.6887 32.8145 35.9346 33.3297C35.5562 33.5937 35.4784 33.7356 35.6328 32.9311C35.6601 32.7604 35.6865 32.59 35.7123 32.4198C36.0866 29.9553 36.3388 27.5309 36.8063 25.0329ZM31.6461 20.7998C31.2423 19.4178 32.4445 18.0518 33.7907 18.0043C35.615 17.882 36.1186 20.3999 34.2522 21.542C33.1714 22.0383 32.0352 21.9331 31.6461 20.7998Z" fill="white"/>
</svg>

<svg xmlns="http://www.w3.org/2000/svg" width="80" height="80" fill="none" viewBox="0 0 80 80"><rect width="80" height="80" fill="#e9232a" rx="8"/><path fill="#fff" d="M17.6 61.533c-.914-.477-1.633-.895-1.599-.93.117-.116 4.484-1.052 7.534-1.612 6.599-1.215 14.445-2.186 22.26-2.757 3.218-.236 14.862-.243 16.881-.012l1.324.152-1.492.024c-2.65.04-8.726.467-13.486.947-9.01.906-19.028 2.578-26.275 4.385-1.48.368-2.87.67-3.09.67s-1.145-.39-2.058-.867m12.597-9.102c-.136-.376.431-.544.678-.65 1.11-.478 1.89-1.256 2.151-2.144.125-.425.506-2.829.846-5.341s.647-4.455.68-4.57c.025-.084.092-.384.45-.416.917-.009 1.598.003 2.537.003.52-.05.417.52.376.885-.04.46-.164 1.351-.308 2.437l-.583 4.4c-.327 2.46-.508 3.218-1.072 4.486-.671 1.508-1.698 2.385-3.558 3.008-.376.119-1.454.487-1.57.16-.244-.783-.417-1.463-.627-2.258m21.367-.825c-1.24-.503-1.182-2.443.119-3.239.823-.503 1.98-.418 2.574.179 1.464 1.47-.69 3.871-2.693 3.06m-9.372-1.16c-3.646-.624-3.621-4.986-2.805-7.479 1.023-2.885 3.515-3.723 5.563-3.796 1.729-.06 4.125.263 4.727.636.166.103.088 1.103-.376 4.81-.323 2.575-.675 4.79-.784 4.92-.577.698-4.444 1.254-6.325.91m3.18-3.451c.391-1.462.556-2.78.836-4.322-.035-.531-.928-.535-1.155-.536-1.184 0-1.883.666-2.254 2.149-.508 2.033.023 3.166 1.484 3.166.461-.043.943-.018 1.089-.457M18.729 49.27c.997-2.443 5-11.191 5.96-13.003.181-.451.66-.54.987-.572.941-.043 1.755-.032 2.582-.026.851.008.864.308.973.943.134.633 1.796 10.59 2.172 12.981.048.397.145.52-.37.521-.713.002-2.43.096-3.013.051-.186-.024-.307-.146-.336-.284a11 11 0 0 1-.154-1.156l-.106-1.19h-4.277l-.468 1.145c-.166.407-.348.809-.483 1.075-.095.245-.237.357-.448.403-.524-.004-2.379.065-3.076.003-.345-.159-.033-.669.057-.892m8.318-5.05c-.06-.644-.47-3.962-.566-4.452-.025-.053-.037-.035-.063-.005-.253.381-1.62 3.749-1.853 4.53-.028.108.042.148.144.14.347-.025 1.764-.051 2.195-.068.123-.01.135-.052.143-.146m24.681 1.612c.055-.434.176-1.61.27-2.616.092-1.005.24-2.574.33-3.488.067-.693.126-1.366.152-1.72.052-.317.434-.355.685-.357.838.009 1.627-.041 2.38.029.356.036.505.115.506.328-.34 1.749-1.56 7.783-1.654 8.156-.081.322-.114.417-.604.445-.6-.01-1.101.022-1.71.02-.35-.005-.443-.108-.355-.797m-16.903-8.964c0-1.066.683-1.879 1.54-2.22.739-.26 1.568-.26 2.009.246.783.914.27 2.264-.646 2.967-1.172.81-2.884.331-2.903-.993m21-2.247A779 779 0 0 0 54 30.616c-.748-1.63-1.32-3.068-1.272-3.194.048-.127.882-1.166 1.852-2.309l1.58-1.861c.103-.126.221-.28.365-.281.952.005 1.938.062 2.846.053.677-.006 1.017-.05.515.461-.32.4-.954 1.13-1.679 1.932-1.047 1.16-1.903 2.139-1.903 2.177s.785 1.768 1.744 3.846c.754 1.632 1.377 3.092 1.587 3.702.09.207.01.384-.181.432-.254.06-.71.083-1.497.083H56.78c-.287.03-.499-.02-.61-.267zm-35.23-1.215c-1.06-.53-1.56-1.2-1.651-2.211-.055-.606.933-8.748 1.37-11.337.107-.608.153-.642.734-.642h1.142c.6 0 1.147-.01 1.49.01.47.006.384.303.349.659-.081.793-.333 2.513-.648 4.728-.56 3.929-.703 5.315-.57 5.529.158.25.556.29 3.195.33l2.361.036c.562-.031.679.107.623.614-.138.838-.213 1.507-.35 2.258-.094.47-.396.346-.865.375l-2.76.039c-3.54.044-3.558.042-4.42-.388m27.223.301c-.036-.068.063-1.021.22-2.117.156-1.096.483-3.451.725-5.232.69-5.057.916-6.581 1.012-7.164.102-.68.102-.643.767-.643h1.053c.41 0 .732-.005.98.003.945.03.825-.05.586 1.42-.09.555-.39 3-.668 5.055-.697 5.176-1.154 8.35-1.238 8.595-.079.23-3.32.309-3.437.083m-17.994-.394c.439-3.698.858-6.495 1.346-9.938.037-.412.44-.46.912-.46.536 0 1.082-.007 1.592.01.99.003 1.25.136 1.147.8-.438 3.232-.98 6.116-1.549 9.401-.106.556-.236.54-.765.54-.617.002-1.711.023-2.27.007-.328-.058-.402-.095-.413-.36m6.982-8.28c.272-1.43.46-1.654.854-1.913.487-.32 4.08-.653 5.321-.494q.26.038.495.094c3.635.867 3.07 4.997 2.834 6.898-.25 1.815-.494 3.469-.544 3.674-.086.358-.164.374-1.81.374-.553 0-.842-.02-1.157-.049-.508-.033-.555-.148-.504-.519.185-1.517.435-2.825.621-4.241.25-1.934.184-3.843-2.206-3.432-.41.104-.522.137-.579.547-.298 1.91-.56 3.883-.833 5.75-.06.447-.144.912-.23 1.325-.022.106-.034.2-.053.27-.024.082-.08.167-.135.083-.384-.703-2.191-.585-2.945-.07-.379.264-.457.406-.302-.399l.08-.511c.374-2.465.626-4.89 1.093-7.387m-5.16-4.233c-.404-1.382.798-2.748 2.145-2.796 1.824-.122 2.328 2.396.461 3.538-1.08.496-2.217.391-2.606-.742"/></svg>
